X: 1
T: Fight For Rights
R: slip jig
M: 9/8
L: 1/8
K: Dmaj
d2A BAG FGA|d2A BGB gfe|d2A BAG FGA|EFG GFE AFA:|
B2F Bcd dcB|B2G Bcd dcB|c2A cde edc|fgf fed edc:|

